X: 23195
T: Le Voyage
R: reel
M: 4/4
K: Amixolydian
AB (3cBA e3 e|AB (3cBA g3 g|agea gedg|edBA GABG|
AB (3cBA e2 ee|AB (3cBA g3 g|agea gedB|GABG A4:|
|:A2 EA ABcA|BAGB AGEF|G2 DG GF G2|DGGF G2 FG|
A2 EA ABcA|BAGB AGEF|Gbag efge|dBGA BA A2:|
|:AB (3cBA dcBc|AB (3cBA FAEA|AB (3cBA dcBf|edca gedc|
AB (3cBA dcBc|AB (3cBA FAEA|AB (3cBA dcBf|1 edca gedc:|2 edca gecd|
|:eaae a3a|abag e2f2|g2gf g2ba|gagf edcd|
eaae a3a|abag e2f2|gbag efge|dBGA BA A2:|

